packages/foundations/assets/icons/functional/images/maps/station_20_filled.svg

<svg width="20" height="20" viewBox="0 0 20 20" fill="none" xmlns="http://www.w3.org/2000/svg">
<g clip-path="url(#clip0_2213_5315)">
<path fill-rule="evenodd" clip-rule="evenodd" d="M10 2C14.4183 2 18 5.58172 18 10C18 14.4183 14.4183 18 10 18C5.58172 18 2 14.4183 2 10C2 5.58172 5.58172 2 10 2ZM12.5135 6.0015C11.994 6.0015 11.5729 6.42255 11.5728 6.942L11.5724 9.1925H8.42643L8.42683 6.942C8.42692 6.45976 8.00592 6.0015 7.4865 6.0015C6.96708 6.0015 6.546 6.42258 6.546 6.942V13.058C6.546 13.5774 6.96708 13.9985 7.4865 13.9985C8.00584 13.9985 8.42684 13.5775 8.42684 13.0582L8.42643 10.6105H11.5724L11.5728 13.058C11.5729 13.5774 11.9941 13.9985 12.5135 13.9985C13.0329 13.9985 13.454 13.5774 13.454 13.058V6.942C13.454 6.42258 13.0329 6.0015 12.5135 6.0015Z" fill="#1A1C1F"/>
</g>
<defs>
<clipPath id="clip0_2213_5315">
<rect width="20" height="20" fill="white"/>
</clipPath>
</defs>
</svg>

<svg xmlns="http://www.w3.org/2000/svg" width="20" height="20" fill="none"><g clip-path="url(#a)"><path fill="#1A1C1F" fill-rule="evenodd" d="M10 2a8 8 0 1 1 0 16 8 8 0 0 1 0-16m2.514 4.002a.94.94 0 0 0-.941.94v2.25H8.425v-2.25c0-.482-.42-.94-.94-.94a.94.94 0 0 0-.94.94v6.116a.94.94 0 0 0 1.88 0v-2.447h3.146v2.447a.94.94 0 0 0 1.882 0V6.942a.94.94 0 0 0-.94-.94" clip-rule="evenodd"/></g><defs><clipPath id="a"><path fill="#fff" d="M0 0h20v20H0z"/></clipPath></defs></svg>
